X:1
T:Title
%%score { ( 1 4 ) | ( 2 3 ) }
L:1/8
M:2/4
K:Bb
V:1 treble nm="Grand Piano"
V:4 treble 
V:2 bass 
V:3 bass 
V:1
 z2 z[Q:1/4=86] [DB]/[Ec]/ | [Fd]>[DB] Ac | [DB]2 [B,DF].[B,FB] | [B,EG][B,GB] [B,EG][B,EB] | %4
[M:3/8] [DF]3 |[M:1/8] [B,DF] |[M:2/4] F>F GA | [DB]2 [Fd][Fd] | [Fc]>[Fd] [=Ec]E |[M:3/8] F3 | %10
[M:1/8] F |[M:2/4] c>d e[FA] | B2 z2 | c>d e[FA] |[M:3/8] B2 z |[M:1/8] B | %16
[M:2/4] [B,GB]>[B,EG] [B,GB][Gc] | d2 z2 | B>B BA |[M:3/8] [DFB]3 |] %20
V:2
 z2 z [B,,F,] | [B,,B,]>[B,,F,] [F,C][F,E] | [B,,F,]2 .B,,>A | E,E, E,G, |[M:3/8] B,3 | %5
[M:1/8] B,, |[M:2/4] [F,A,E]>[F,A,E] [F,B,E][F,CE] | [B,,B,]2 [B,,B,][B,,B,] | %8
 [C,A,]>[C,A,] [C,G,][C,B,C] |[M:3/8] [F,A,C]3 |[M:1/8] F, |[M:2/4] [F,A,F]>[F,B,F] [F,CF][E,C] | %12
 [D,B,]>[C,A,] [B,,B,]F, | [F,A,F]>[F,B,F] [F,CF][E,C] |[M:3/8] [D,B,]>[C,A,][B,,B,] |[M:1/8] B, | %16
[M:2/4] E,>E, E,[E,G,] | [D,A,][G,=B,] [C,C][E,C] | [F,DF]>[F,DF] [F,CF][F,EF] |[M:3/8] B,,3 |] %20
V:3
 x4 | x4 | z2 z D, | x4 |[M:3/8] x3 |[M:1/8] x |[M:2/4] x4 | x4 | x4 |[M:3/8] x3 |[M:1/8] x | %11
[M:2/4] x4 | x4 | x4 |[M:3/8] x3 |[M:1/8] x |[M:2/4] x4 | x4 | x4 |[M:3/8] x3 |] %20
V:4
 x4 | x4 | x4 | x4 |[M:3/8] x3 |[M:1/8] x |[M:2/4] x4 | x4 | x4 |[M:3/8] x3 |[M:1/8] x | %11
[M:2/4] x4 | F->[Fc] [Fd]F | x4 |[M:3/8] F->[Fc][Fd] |[M:1/8] x |[M:2/4] x4 | ^F=F [Ee][Gc] | x4 | %19
[M:3/8] x3 |] %20

